icons/mobile/24/svg/extension-critical-24.svg

<!-- This Source Code Form is subject to the terms of the Mozilla Public
   - License, v. 2.0. If a copy of the MPL was not distributed with this
   - file, You can obtain one at http://mozilla.org/MPL/2.0/. -->
<svg xmlns="http://www.w3.org/2000/svg" width="24" height="24" fill="none" viewBox="0 0 24 24">
    <path fill="#000" fill-rule="evenodd" d="M22.25 17a5 5 0 1 1-10 0 5 5 0 0 1 10 0M18 17v-2.75h-1.5V17zm0 2.75v-1.5h-1.5v1.5z" clip-rule="evenodd" />
    <path fill="#000" d="M11.16 19.25H3.5a.75.75 0 0 1-.75-.75V17h1.5c1.93 0 3.5-1.57 3.5-3.5S6.18 10 4.25 10h-1.5V8.5a.75.75 0 0 1 .75-.75h3.375a.875.875 0 0 0 .875-.875V4.5c0-.965.785-1.75 1.75-1.75s1.75.785 1.75 1.75v2.375c0 .483.392.875.875.875H15.5a.75.75 0 0 1 .75.75v2.085a6.5 6.5 0 0 1 1-.085q.38.002.75.047V8.5C18 7.122 16.879 6 15.5 6H13V4.5C13 2.57 11.43 1 9.5 1S6 2.57 6 4.5V6H3.5A2.503 2.503 0 0 0 1 8.5v2.375c0 .483.392.875.875.875H4.25c.965 0 1.75.785 1.75 1.75s-.785 1.75-1.75 1.75H1.875a.875.875 0 0 0-.875.875V18.5C1 19.878 2.121 21 3.5 21h8.637a6.5 6.5 0 0 1-.977-1.75" />
</svg>

<!-- This Source Code Form is subject to the terms of the Mozilla Public
   - License, v. 2.0. If a copy of the MPL was not distributed with this
   - file, You can obtain one at http://mozilla.org/MPL/2.0/. -->
<svg width="24" height="24" viewBox="0 0 24 24" fill="none" xmlns="http://www.w3.org/2000/svg">
    <path fill-rule="evenodd" clip-rule="evenodd" d="M22.25 17C22.25 19.7614 20.0114 22 17.25 22C14.4886 22 12.25 19.7614 12.25 17C12.25 14.2386 14.4886 12 17.25 12C20.0114 12 22.25 14.2386 22.25 17ZM18 17V14.25H16.5V17H18ZM18 19.75V18.25H16.5V19.75H18Z" fill="black" />
    <path d="M11.16 19.25H3.5C3.087 19.25 2.75 18.914 2.75 18.5V17H4.25C6.18 17 7.75 15.43 7.75 13.5C7.75 11.57 6.18 10 4.25 10H2.75V8.5C2.75 8.086 3.087 7.75 3.5 7.75H6.875C7.358 7.75 7.75 7.358 7.75 6.875V4.5C7.75 3.535 8.535 2.75 9.5 2.75C10.465 2.75 11.25 3.535 11.25 4.5V6.875C11.25 7.358 11.642 7.75 12.125 7.75H15.5C15.913 7.75 16.25 8.086 16.25 8.5V10.585C16.577 10.534 16.909 10.5 17.25 10.5C17.504 10.5 17.753 10.518 18 10.547V8.5C18 7.122 16.879 6 15.5 6H13V4.5C13 2.57 11.43 1 9.5 1C7.57 1 6 2.57 6 4.5V6H3.5C2.121 6 1 7.122 1 8.5V10.875C1 11.358 1.392 11.75 1.875 11.75H4.25C5.215 11.75 6 12.535 6 13.5C6 14.465 5.215 15.25 4.25 15.25H1.875C1.392 15.25 1 15.642 1 16.125V18.5C1 19.878 2.121 21 3.5 21H12.137C11.726 20.475 11.396 19.886 11.16 19.25Z" fill="black" />
</svg>
